X:105
T:\"Oslinder
S:Andy Hornby / Cathy Goss
R:Other
O:Turkey
M:4/4
K:Gm
de dc BA Bc|de dc BA G2|de dc BA Bc|d2 gg g2g2|\
de dc BA Bc|de dc BA G2|
c2B2 A2GF|G8:|\
G2dd d2d2|e2e[ef] d2d2|\
c2cc B2c2|[d2d2]de dc BA|
G2dd d2d2|e2e[fg] d2d2|\
c2cc B2c2|[d2d2]de dc BA|\
G3A B2c2|de dc BA G2|
c2B2 A2G2|^F8|\
G3A B2c2|de dc BA G2|c2B2 A2G^F|G8||
G3B A2G2|^F2E2 D4|C2CC B,2C2|DC D/C/D/E/ ^F4|\
G3B A2G2|^F2E2 D4|C3C DE ^FD|G8|
g3b a2g2|^f2e2 d4|c2cc 3b a2g2|^f2e2 d4|c2cc 